X:1
T:PANTOMIME -- REEL
B:Ryan's Mammoth Collection of Fiddle Tunes
R:reel
Z:Contributed 20000515192735 by John Chambers jchambers:casc.com
Z:Contributed by Ray Davies, ray:davies99.freeserve.co.uk
M:2/4
L:1/16
K:F
(uAB) |\
cAFA cAfd | cfAc agfe | fgcg bagf | ((3gfe) ((3fed) .c2(AB) |
cAFA cAfd | cfAc agfe | fgcg bage | f2a2f2 :|
|: (ufg) |\
.a.f (g/f/e/f/) dfcf | Acfc .a(fef) | gcac bcac | {a}gfed .c2(fg) |
.a.f (g/f/e/f/) dfcf | Acfc .a(fef) | gcac bcac | {a}gcde f2 :|
